X: 43423
T: Y Drochfa
R: reel
M: 4/4
K: Amajor
cB|"A"A2a2 faed|cdBc ABcA|"E"BEEE cEEE|dEcE B2cB|
"A"A2a2 faed|cdBc ABcA|"D"dcdf "A"ecAc|"E"dBGB "A"A2:|
|:c2|"D"dedA FAdB|"A"cdcA EAcA|"E"BcBG EGBG|"A"AEEE "A7"BEcE|
"D"dedA FAdB|"A"cdcA EAcA|"E"BEEB EEBE|EEGB "A"A2:|

